X:1
T:I Am a Pilgrim
M:4/4
L:1/4
K:C
 z G3/4- G/4 A c| d2 d2-| d2 G3/4- G/4 A| c2 c2-| c z| e/2d/2 c| d2 d2-|\
 d- G A/2A/2 c| c4-| c G A c| c2 c2-| c g g g| g2 f c| _e- c =e3/4- e/4 f|\
 g4-| g G3/4- G/4 A c| c4-| c||
